!!!OTL: 124. Skotshne
!!!Genre:	Skotshne
!!!Mode:	Minor
!!!Listening/dance:	dance
!!!One_Mode:	no
**kern
*thru
*I"P1
*clefG2
*k[b-e-]
*B-:
!LO:TX:a:i:t=Bb-major
=29
4ff
4cc
=30
8dd
4cc
8cc
=31
8ffL
8ff
8cc
8ccJ
=32
8dd
4cc
8cc
=33
16ffLL
16ff
16ff
16ffJJ
16ee-LL
16ee-
16ee-
16ee-JJ
=34
16ddLL
16dd
16dd
16ddJJ
16ccLL
16cc
16cc
16ccJJ
=35
8b-L
8b-J
16ccLL
16b-
16cc
16ddJJ
=36
2b-
*>C
=37!|:
8.aL
16b-Jk
8ccL
8ccJ
=38
8ccL
8cc
8cc
8ccJ
=39
8b-L
8dd
8b-
8ddJ
=40
8ccL
8ccJ
4cc
!!!End-Modulation
*B-:
!LO:TX:a:i:t=Bb-major
8.aL
16b-Jk
8ccL
8ccJ
=38
8ccL
8cc
8cc
8ccJ
=39
8b-L
8dd
8b-
8ddJ
=40
8ccL
8ccJ
4cc
!!!End-Modulation
*-
